16x16/apps/amule.svg

<svg xmlns="http://www.w3.org/2000/svg" width="16" height="16" version="1">
 <circle style="fill:#ff4e4e" cx="12" cy="15" r="1"/>
 <path style="fill:#895c33" d="M 10.933265,9.6176128e-6 C 10.771855,-0.00210466 10.208611,0.34848832 9.9990002,0.66221154 8.847713,2.2376219 7.9809782,4.0152082 7.9961606,5.3707904 c 0.0031,0.2172295 0.0093,0.4683521 0.017604,0.7625485 0.3630706,0.02013 1.3685161,0.2112524 1.7074454,0.380952 C 9.770656,6.4290369 9.819124,6.2888499 9.8648116,6.1971761 10.581941,4.7578106 10.845408,2.565944 11.05008,0.82739002 11.122013,0.21639031 11.058821,0.00165488 10.933265,9.6176128e-6 Z M 3.141325,2.9665925 c -0.5331743,0.034079 0.5903943,2.3452297 0.9211301,2.8565356 0.2999918,0.4637478 1.0448316,1.3090262 1.6406241,1.9486593 0.127668,0.1370547 0.2416439,0.2559476 0.3497021,0.3683033 0,0 0.069554,0.095893 0.1149977,0.054782 C 6.424719,7.9624245 7.2599458,6.4601409 7.578642,6.3373763 L 7.5364097,6.2708396 C 6.6620678,4.9710196 5.2287922,4.0802559 3.4783782,3.0834081 3.3274457,2.9974546 3.2174926,2.9617239 3.141325,2.9665925 Z"/>
 <path style="fill:#c37e3f" d="M 8.2890785,6.0000047 C 7.0299719,6.1139354 6.1973078,6.7642408 5.7048502,7.6872036 5.6282596,7.9177313 5.5868164,8.1735961 5.5868164,8.4534288 c 0,0.9679204 0.3111194,1.7156692 0.2219967,2.6990672 -0.1207742,1.332791 -1.1493598,2.137427 -0.6925669,3.342095 0.00948,0.02947 0.012336,0.05638 0.023454,0.08639 0.094312,0.25467 0.2819024,0.518508 0.545611,0.812801 0.0427,0.04765 0.093463,0.08912 0.1453919,0.129958 0.2072169,0.166353 0.4806908,0.281526 0.7957491,0.356069 0.2154615,0.05098 0.4491051,0.08442 0.6902216,0.10442 0.082089,0.0068 0.165076,0.01179 0.2485739,0.01577 l 0.071133,-0.0091 c 0.8461764,0.03213 1.7327857,-0.06001 2.2512335,-0.08714 0.1238388,-0.0065 0.2481458,-0.0198 0.3720788,-0.03905 0.382837,-0.05955 0.760912,-0.178726 1.109202,-0.345553 h 0.0022 c 0.01685,-0.0083 0.03176,-0.01929 0.04847,-0.0278 0.132705,-0.06601 0.262823,-0.136184 0.384587,-0.215595 0.389704,-0.254121 0.715827,-0.573474 0.928631,-0.9375 0.181605,-0.310644 0.279735,-0.65382 0.265771,-1.016376 C 12.993996,12.946434 12.875452,12.550004 12.60619,12.14627 11.729025,10.831047 10.777337,9.2163191 10.727902,7.4580831 10.701334,7.2019283 10.607878,6.9786069 10.463694,6.7880114 9.9684402,6.1976531 8.9797891,6.0031425 8.2890659,6.0000009 Z"/>
 <path style="fill:#8e8e8e" d="m 10.118071,11.001794 c 0.455203,0 0.876052,-0.0093 1.190369,0.09718 0.33924,0.11495 0.554301,0.364906 0.554301,0.90731 0,0.496041 -0.793818,1.223565 -1.029868,1.903672 0.07942,0.584277 0.272653,1.162806 0.538593,1.608881 0.150631,-0.07232 0.295545,-0.153597 0.43256,-0.243006 0.389492,-0.25412 0.715301,-0.573603 0.92799,-0.93763 0.35879,-0.614071 0.395707,-1.354878 -0.126522,-2.122341 -1.265707,-2.3972564 -6.2593256,-0.682017 -7.20849,0.33163 -0.048989,0.322124 -0.6287554,1.021327 -0.2540317,2.033746 0.094259,0.25467 0.281742,0.518066 0.5453065,0.81236 0.2130321,0.237844 0.5470876,0.387865 0.9408579,0.479178 0.2153436,0.04994 0.44852,0.08231 0.6895044,0.101909 0.082045,0.0066 0.1649663,0.01184 0.2484173,0.01574 -5.378e-4,-0.374376 0.027204,-0.747377 0.018894,-1.10357 -7.173e-4,-0.03097 -0.00174,-0.06183 -0.00305,-0.09252 -0.082827,-0.817519 -1.6289874,-0.974577 -1.6289874,-2.123542 0,-0.238257 0.08111,-0.443523 0.2221202,-0.620171 0.7008106,-0.877841 2.8813201,-1.048828 3.9420448,-1.048828 v 0 z"/>
 <path style="fill:#f4f4f7" d="m 9.6343188,8.5195736 c -0.2423192,0.053156 -0.6338914,0.8730337 -0.6343163,1.1411863 -5.826e-4,0.3503531 0.1419226,0.4847051 0.4141513,0.6439581 0.272228,0.159254 1.5823222,0.354113 1.5854952,-0.01901 0.0031,-0.3674264 -0.01421,-0.6794688 -0.07765,-0.8860361 C 10.858545,9.1931048 10.729353,8.8016875 10.46897,8.6331429 10.305351,8.5272372 9.8766377,8.466419 9.6343188,8.5195754 Z"/>
 <path style="fill:#f4f4f7" d="M 7.9822313,9.8967217 C 7.9350253,9.6496535 7.4718596,9.2316959 7.1790562,9.0991276 6.4395405,8.764298 5.9434034,9.3458773 6.0051856,9.8295564 6.0510743,10.189021 6.3259863,11.180313 6.9566387,10.971376 7.587291,10.762439 8.1034502,10.530802 7.9822313,9.8967217 Z"/>
 <path style="fill:#f4f4f7" d="m 10.118071,11.001794 c -1.0607252,0 -3.2412346,0.170987 -3.9420454,1.048824 0.4715383,0.590671 0.8420408,1.134862 1.176908,1.763741 0.1591569,0.298927 0.2149998,0.63055 0.2299592,0.979973 0.00305,0.02993 0.00403,0.06074 0.00305,0.09252 0.00829,0.356195 -0.019463,0.729195 -0.018889,1.103572 0.8667128,0.04047 1.7882999,-0.05865 2.3209586,-0.08655 0.1237706,-0.0065 0.2480426,-0.01957 0.3719086,-0.03883 0.383432,-0.05968 0.762836,-0.178847 1.111538,-0.346225 -0.265938,-0.446075 -0.459169,-1.024604 -0.538591,-1.608883 -0.02617,-0.192452 -0.03998,-0.38549 -0.03998,-0.574658 0,-0.591989 0.228304,-1.631899 0.515543,-2.236351 -0.314317,-0.106498 -0.735165,-0.09714 -1.190369,-0.09714 v 0 z"/>
 <path style="fill:#17191e" d="m 7.3529336,13.814359 c -0.3348672,-0.628879 -0.7053697,-1.17307 -1.176908,-1.763741 -0.1410112,0.176648 -0.2221198,0.381913 -0.2221198,0.62017 0,1.148967 1.5461605,1.306024 1.628987,2.123544 -0.014958,-0.349423 -0.070802,-0.681046 -0.2299592,-0.979973 z"/>
 <path style="fill:#17191e" d="m 11.30844,11.098944 c -0.28724,0.604452 -0.515544,1.644362 -0.515544,2.236351 0,0.189168 0.01381,0.382207 0.03998,0.574659 0.23605,-0.680107 1.029868,-1.407631 1.029868,-1.903672 0,-0.542403 -0.215061,-0.79236 -0.5543,-0.907338 z"/>
</svg>

<svg xmlns="http://www.w3.org/2000/svg" width="16" height="16" version="1"><circle style="fill:#ff4e4e" cx="12" cy="15" r="1"/><path style="fill:#895c33" d="M10.933 0c-.161-.002-.724.348-.934.662-1.151 1.576-2.018 3.353-2.003 4.709.003.217.01.468.018.762.363.02 1.368.212 1.707.381.05-.085.098-.225.144-.317.717-1.44.98-3.631 1.185-5.37.072-.61.009-.825-.117-.827zM3.141 2.967c-.533.034.59 2.345.921 2.856.3.464 1.045 1.31 1.641 1.949.128.137.242.256.35.368 0 0 .07.096.115.055.257-.233 1.092-1.735 1.41-1.858l-.042-.066c-.874-1.3-2.307-2.19-4.058-3.188-.15-.086-.26-.121-.337-.116z"/><path style="fill:#c37e3f" d="M8.29 6c-1.26.114-2.093.764-2.585 1.687a2.42 2.42 0 0 0-.118.766c0 .968.31 1.716.222 2.7-.121 1.332-1.15 2.137-.693 3.342.01.03.013.056.024.086.094.255.282.518.545.813.043.047.094.089.146.13.207.166.48.281.795.356.216.05.45.084.69.104.083.007.166.012.25.016l.07-.01c.847.033 1.733-.06 2.252-.086a4.013 4.013 0 0 0 1.481-.385h.002c.017-.008.032-.02.049-.028.132-.066.262-.136.384-.215.39-.254.716-.574.929-.938.181-.31.28-.654.266-1.016-.005-.376-.124-.772-.393-1.176-.877-1.315-1.829-2.93-1.878-4.688a1.32 1.32 0 0 0-.264-.67C9.968 6.198 8.98 6.003 8.289 6z"/><path style="fill:#8e8e8e" d="M10.118 11.002c.455 0 .876-.01 1.19.097.34.115.555.365.555.907 0 .496-.794 1.224-1.03 1.904.08.584.273 1.163.538 1.609.151-.072.296-.154.433-.243.39-.254.715-.574.928-.938.359-.614.396-1.355-.127-2.122-1.265-2.397-6.259-.682-7.208.331-.049.323-.629 1.022-.254 2.034.094.255.282.518.545.813.213.237.547.387.941.479a4.8 4.8 0 0 0 .69.102c.082.006.165.012.248.015 0-.374.027-.747.019-1.103l-.003-.093c-.083-.817-1.63-.974-1.63-2.123a.97.97 0 0 1 .223-.62c.7-.878 2.881-1.05 3.942-1.05z"/><path style="fill:#f4f4f7" d="M9.634 8.52C9.392 8.573 9 9.393 9 9.66c0 .351.142.485.414.645.272.159 1.582.354 1.586-.02.003-.367-.015-.679-.078-.885-.063-.207-.193-.598-.453-.767-.164-.106-.592-.167-.835-.113zM7.982 9.897c-.047-.247-.51-.665-.803-.798-.74-.335-1.236.247-1.174.73.046.36.321 1.351.952 1.142.63-.209 1.146-.44 1.025-1.074zM10.118 11.002c-1.06 0-3.241.17-3.942 1.049.472.59.842 1.134 1.177 1.763.16.3.215.63.23.98a.7.7 0 0 1 .003.093c.008.356-.02.729-.019 1.103.867.04 1.788-.058 2.321-.086a4.014 4.014 0 0 0 1.483-.385 4.384 4.384 0 0 1-.538-1.61 4.279 4.279 0 0 1-.04-.574c0-.592.228-1.632.515-2.236-.314-.107-.735-.097-1.19-.097z"/><path style="fill:#17191e" d="M7.353 13.814a11.132 11.132 0 0 0-1.177-1.763.97.97 0 0 0-.222.62c0 1.149 1.546 1.306 1.629 2.123-.015-.35-.07-.68-.23-.98zM11.308 11.099c-.287.604-.515 1.644-.515 2.236 0 .19.014.383.04.575.236-.68 1.03-1.408 1.03-1.904 0-.542-.215-.792-.555-.907z"/></svg>
